; generated by PrusaSlicer 2.9.0 on 2025-01-22 at 20:37:49 UTC


;
;
; 

; external perimeters extrusion width = 0.45mm
; perimeters extrusion width = 0.45mm
; infill extrusion width = 0.45mm
; solid infill extrusion width = 0.45mm
; top infill extrusion width = 0.40mm
; support material extrusion width = 0.35mm
; first layer extrusion width = 0.42mm

M73 P0 R299
M73 Q0 S301
M201 X1000 Y1000 Z200 E5000 ; sets maximum accelerations, mm/sec^2
M203 X200 Y200 Z12 E120 ; sets maximum feedrates, mm / sec
M204 S1250 T1250 ; sets acceleration (S) and retract acceleration (R), mm/sec^2
M205 X8.00 Y8.00 Z0.40 E4.50 ; sets the jerk limits, mm/sec
M205 S0 T0 ; sets the minimum extruding and travel feed rate, mm/sec

; printing object cam_holder_plate-cam_holder_plate.stl id:0 copy 0
; stop printing object cam_holder_plate-cam_holder_plate.stl id:0 copy 0

;TYPE:Custom
M862.3 P "MK3" ; printer model check
M862.1 P0.4 ; nozzle diameter check
M115 U3.14.1 ; tell printer latest fw version
G90 ; use absolute coordinates
M83 ; extruder relative mode
M104 S215 ; set extruder temp
M140 S60 ; set bed temp
M190 S60 ; wait for bed temp
M109 S215 ; wait for extruder temp
G28 W ; home all without mesh bed level
G80 X12.6229 Y52.6229 W224.754 H104.754 ; mesh bed levelling

G1 Z0.2 F720
G1 Y-3 F1000 ; go outside print area
G92 E0
G1 X60 E9 F1000 ; intro line
G1 X100 E12.5 F1000 ; intro line

G92 E0
M221 S95

; Don't change E values below. Excessive value can damage the printer.
M907 E430 ; set extruder motor current
G21 ; set units to millimeters
G90 ; use absolute coordinates
M83 ; use relative distances for extrusion

M900 K0.05 ; Filament gcode LA 1.5
M900 K30 ; Filament gcode LA 1.0




M107
;LAYER_CHANGE
;Z:0.2
;HEIGHT:0.2
G1 E-.8 F2100
G1 Z.6 F720
G1 X14.235 Y52.949 F10800
G1 Z.2 F720
G1 E.8 F2100
M204 S800
;TYPE:Skirt/Brim
;WIDTH:0.42
G1 F1200
G1 X15 Y52.811 E.02437
G1 X235 Y52.811 E6.89795
G1 X236.248 Y53.202 E.04101
G1 X237.051 Y54.235 E.04102
G1 X237.189 Y55 E.02437
G1 X237.189 Y155 E3.13543
G1 X236.798 Y156.248 E.04101
G1 X235.765 Y157.051 E.04102
G1 X235 Y157.189 E.02437
G1 X15 Y157.189 E6.89795
G1 X13.752 Y156.798 E.04101
G1 X12.949 Y155.765 E.04102
G1 X12.811 Y155 E.02437
G1 X12.811 Y55 E3.13543
G1 X13.202 Y53.752 E.04101
M73 P0 R298
G1 X14.188 Y52.986 E.03915
M204 S1000
;WIPE_START
G1 F8640
G1 X14.235 Y52.949 E-.01381
G1 X15 Y52.811 E-.17949
G1 X17.628 Y52.811 E-.6067
;WIPE_END
G1 Z.6 F720
; printing object cam_holder_plate-cam_holder_plate.stl id:0 copy 0
G1 X102.263 Y83.026 F10800
G1 Z.2 F720
G1 E.8 F2100
M204 S800
;TYPE:Perimeter
;WIDTH:0.419999
G1 F1200
G1 X102.091 Y83.481 E.01525
G1 X101.932 Y83.749 E.00977
G1 X101.65 Y84.067 E.01333
G1 X101.311 Y84.324 E.01334
G1 X100.927 Y84.507 E.01334
G1 X100.473 Y84.613 E.01462
G1 X99.927 Y84.613 E.01712
G1 X99.43 Y84.494 E.01602
G1 X98.995 Y84.262 E.01546
G1 X98.65 Y83.966 E.01425
G1 X98.386 Y83.618 E.0137
G1 X98.161 Y83.121 E.01711
G1 X98.067 Y82.629 E.01571
G1 X98.098 Y82.126 E.0158
G1 X98.214 Y81.717 E.01333
G1 X98.408 Y81.339 E.01332
G1 X98.674 Y81.007 E.01334
G1 X99 Y80.734 E.01333
G1 X99.373 Y80.531 E.01331
G1 X99.78 Y80.407 E.01334
G1 X100.203 Y80.365 E.01333
G1 X100.626 Y80.408 E.01333
G1 X101.032 Y80.534 E.01333
G1 X101.405 Y80.738 E.01333
G1 X101.731 Y81.011 E.01333
G1 X101.995 Y81.344 E.01332
G1 X102.189 Y81.723 E.01335
G1 X102.303 Y82.132 E.01331
G1 X102.334 Y82.556 E.01333
G1 X102.282 Y82.969 E.01305
M204 S1000
G1 X102.282 Y82.969 F10800
G1 X101.896 Y82.932
M204 S800
;TYPE:External perimeter
G1 F1200
G1 X101.76 Y83.3 E.0123
G1 X101.643 Y83.507 E.00746
G1 X101.415 Y83.772 E.01096
G1 X101.139 Y83.988 E.01099
G1 X100.825 Y84.144 E.01099
G1 X100.473 Y84.236 E.01141
G1 X99.927 Y84.236 E.01712
G1 X99.54 Y84.131 E.01257
G1 X99.23 Y83.968 E.01098
G1 X98.939 Y83.723 E.01193
G1 X98.73 Y83.463 E.01046
G1 X98.505 Y82.965 E.01713
G1 X98.443 Y82.595 E.01176
G1 X98.463 Y82.219 E.01181
G1 X98.553 Y81.881 E.01097
G1 X98.709 Y81.567 E.01099
G1 X98.923 Y81.29 E.01098
G1 X99.188 Y81.061 E.01098
G1 X99.494 Y80.889 E.01101
G1 X99.827 Y80.781 E.01098
G1 X100.175 Y80.741 E.01098
G1 X100.524 Y80.771 E.01098
G1 X100.86 Y80.869 E.01097
G1 X101.17 Y81.032 E.01098
G1 X101.442 Y81.254 E.01101
G1 X101.664 Y81.524 E.01096
G1 X101.828 Y81.834 E.011
G1 X101.928 Y82.17 E.01099
G1 X101.959 Y82.519 E.01099
G1 X101.921 Y82.867 E.01098
G1 X101.917 Y82.876 E.00031
M204 S1000
;WIPE_START
G1 F8640
G1 X101.896 Y82.932 E-.01381
G1 X101.76 Y83.3 E-.09059
G1 X101.643 Y83.507 E-.0549
G1 X101.415 Y83.772 E-.08072
G1 X101.139 Y83.988 E-.08093
G1 X100.825 Y84.144 E-.08096
G1 X100.473 Y84.236 E-.08401
G1 X99.927 Y84.236 E-.12607
G1 X99.54 Y84.131 E-.09259
G1 X99.23 Y83.968 E-.08087
G1 X99.182 Y83.927 E-.01455
;WIPE_END
G1 Z.6 F720
G1 X108.123 Y69.488 F10800
G1 Z.2 F720
G1 E.8 F2100
M204 S800
;TYPE:Perimeter
G1 F1200
G1 X107.663 Y69.653 E.01532
G1 X107.124 Y69.732 E.01708
G1 X106.581 Y69.703 E.01705
G1 X106.053 Y69.566 E.0171
G1 X105.564 Y69.328 E.01705
G1 X105.16 Y69.025 E.01583
G1 X104.854 Y68.696 E.01409
G1 X104.561 Y68.237 E.01707
G1 X104.364 Y67.729 E.01708
G1 X104.272 Y67.192 E.01708
G1 X104.288 Y66.648 E.01706
G1 X104.411 Y66.118 E.01706
G1 X104.637 Y65.622 E.01709
G1 X104.957 Y65.181 E.01708
G1 X105.358 Y64.813 E.01707
G1 X105.824 Y64.531 E.01708
G1 X106.337 Y64.347 E.01709
G1 X106.876 Y64.268 E.01708
G1 X107.419 Y64.297 E.01705
G1 X107.947 Y64.434 E.0171
G1 X108.436 Y64.672 E.01705
G1 X108.867 Y65.002 E.01702
G1 X109.227 Y65.413 E.01713
G1 X109.498 Y65.886 E.01709
G1 X109.669 Y66.403 E.01707
G1 X109.734 Y66.922 E.0164
G1 X109.704 Y67.422 E.01571
G1 X109.577 Y67.924 E.01624
G1 X109.363 Y68.378 E.01574
G1 X109.043 Y68.819 E.01708
G1 X108.642 Y69.187 E.01707
G1 X108.179 Y69.468 E.01698
M204 S1000
G1 X108.179 Y69.468 F10800
G1 X107.97 Y69.149
M204 S800
;TYPE:External perimeter
G1 F1200
G1 X107.953 Y69.158 E.0006
G1 X107.507 Y69.304 E.01471
G1 X107.04 Y69.359 E.01474
G1 X106.572 Y69.32 E.01472
G1 X106.121 Y69.189 E.01473
G1 X105.708 Y68.975 E.01458
G1 X105.423 Y68.755 E.01129
G1 X105.131 Y68.439 E.01349
G1 X104.866 Y68.007 E.01589
G1 X104.706 Y67.546 E.0153
G1 X104.643 Y67.099 E.01415
G1 X104.67 Y66.63 E.01473
G1 X104.789 Y66.175 E.01475
G1 X104.997 Y65.754 E.01472
G1 X105.283 Y65.382 E.01471
G1 X105.638 Y65.073 E.01476
G1 X106.047 Y64.842 E.01473
G1 X106.493 Y64.696 E.01471
G1 X106.96 Y64.641 E.01474
G1 X107.428 Y64.68 E.01472
G1 X107.879 Y64.811 E.01473
G1 X108.296 Y65.028 E.01474
G1 X108.675 Y65.341 E.01541
G1 X108.96 Y65.686 E.01403
G1 X109.181 Y66.101 E.01474
G1 X109.328 Y66.648 E.01776
G1 X109.352 Y67.008 E.01131
G1 X109.33 Y67.37 E.01137
G1 X109.211 Y67.825 E.01475
G1 X109.003 Y68.246 E.01472
G1 X108.717 Y68.618 E.01471
G1 X108.362 Y68.927 E.01476
G1 X108.022 Y69.119 E.01224
M204 S1000
;WIPE_START
G1 F8640
G1 X107.97 Y69.149 E-.01386
G1 X107.953 Y69.158 E-.00444
G1 X107.507 Y69.304 E-.10836
G1 X107.04 Y69.359 E-.10858
G1 X106.572 Y69.32 E-.10844
G1 X106.121 Y69.189 E-.10844
G1 X105.708 Y68.975 E-.1074
G1 X105.423 Y68.755 E-.08313
G1 X105.131 Y68.439 E-.09935
G1 X105 Y68.225 E-.058
;WIPE_END
G1 Z.6 F720
G1 X128.654 Y60.709 F10800
G1 Z.2 F720
G1 E.8 F2100
M204 S800
;TYPE:Perimeter
G1 F1200
G1 X128.988 Y60.903 E.01211
G1 X129.789 Y61.51 E.03151
G1 X130.322 Y62.023 E.02319
G1 X130.791 Y62.578 E.02278
G1 X131.203 Y63.177 E.02279
G1 X131.553 Y63.813 E.02276
G1 X131.808 Y64.412 E.02041
G1 X131.992 Y64.974 E.01854
G1 X132.201 Y65.886 E.02934
G1 X132.276 Y66.609 E.02279
G1 X132.279 Y67.335 E.02276
G1 X132.209 Y68.058 E.02278
G1 X132.069 Y68.768 E.02269
G1 X131.901 Y69.322 E.01815
G1 X131.577 Y70.136 E.02747
G1 X131.232 Y70.775 E.02277
G1 X130.825 Y71.377 E.02278
G1 X130.429 Y71.854 E.01944
G1 X129.842 Y72.445 E.02612
G1 X129.276 Y72.9 E.02277
G1 X128.797 Y73.212 E.01792
G1 X128.023 Y73.63 E.02758
G1 X127.347 Y73.898 E.0228
G1 X126.649 Y74.098 E.02277
G1 X125.934 Y74.226 E.02277
G1 X125.21 Y74.283 E.02277
G1 X124.484 Y74.268 E.02277
G1 X123.762 Y74.181 E.0228
G1 X123.248 Y74.066 E.01651
G1 X122.364 Y73.793 E.02901
G1 X121.701 Y73.497 E.02277
G1 X121.172 Y73.195 E.0191
G1 X120.479 Y72.714 E.02645
G1 X119.933 Y72.236 E.02275
G1 X119.436 Y71.705 E.0228
G1 X118.996 Y71.128 E.02275
G1 X118.614 Y70.51 E.02278
G1 X118.297 Y69.856 E.02279
G1 X118.046 Y69.175 E.02276
G1 X117.864 Y68.471 E.0228
G1 X117.77 Y67.866 E.0192
G1 X117.73 Y67.353 E.01613
G1 X117.736 Y66.527 E.0259
G1 X117.821 Y65.792 E.0232
G1 X118.029 Y64.879 E.02936
G1 X118.275 Y64.196 E.02276
G1 X118.587 Y63.54 E.02278
G1 X119.004 Y62.861 E.02498
G1 X119.631 Y62.075 E.03153
G1 X120.158 Y61.555 E.02321
G1 X120.724 Y61.1 E.02277
M73 Q0 S300
G1 X121.332 Y60.704 E.02275
G1 X121.977 Y60.37 E.02277
G1 X122.653 Y60.102 E.0228
G1 X123.351 Y59.902 E.02277
G1 X124.066 Y59.774 E.02277
G1 X124.79 Y59.717 E.02277
G1 X125.516 Y59.732 E.02277
G1 X126.238 Y59.819 E.0228
G1 X126.946 Y59.978 E.02275
G1 X127.636 Y60.207 E.02279
G1 X128.299 Y60.503 E.02277
G1 X128.602 Y60.679 E.01099
M204 S1000
G1 X128.602 Y60.679 F10800
G1 X128.459 Y61.029
M204 S800
;TYPE:External perimeter
G1 F1200
G1 X128.761 Y61.203 E.01093
G1 X129.562 Y61.81 E.03151
G1 X130.059 Y62.293 E.02173
G1 X130.502 Y62.82 E.02159
G1 X130.891 Y63.389 E.02161
G1 X131.221 Y63.993 E.02158
G1 X131.461 Y64.559 E.01928
G1 X131.632 Y65.086 E.01737
G1 X131.831 Y65.961 E.02814
G1 X131.901 Y66.646 E.02159
G1 X131.902 Y67.335 E.0216
G1 X131.834 Y68.021 E.02161
G1 X131.699 Y68.694 E.02152
G1 X131.541 Y69.211 E.01695
G1 X131.23 Y69.99 E.0263
G1 X130.901 Y70.595 E.02159
G1 X130.514 Y71.165 E.0216
G1 X130.14 Y71.611 E.01825
G1 X129.579 Y72.175 E.02494
G1 X129.041 Y72.605 E.02159
G1 X128.593 Y72.896 E.01675
G1 X127.85 Y73.295 E.02644
G1 X127.21 Y73.547 E.02157
G1 X126.547 Y73.735 E.02161
G1 X125.869 Y73.855 E.02159
G1 X125.182 Y73.907 E.0216
G1 X124.493 Y73.891 E.02161
G1 X123.809 Y73.807 E.02161
G1 X123.138 Y73.654 E.02158
G1 X122.484 Y73.436 E.02161
G1 X121.856 Y73.153 E.0216
G1 X121.36 Y72.868 E.01794
G1 X120.699 Y72.408 E.02525
G1 X120.182 Y71.953 E.02159
G1 X119.713 Y71.449 E.02159
G1 X119.296 Y70.9 E.02162
G1 X118.936 Y70.313 E.02159
G1 X118.636 Y69.693 E.0216
G1 X118.4 Y69.046 E.02159
G1 X118.229 Y68.378 E.02162
G1 X118.142 Y67.81 E.01802
G1 X118.09 Y67.009 E.02517
G1 X118.112 Y66.546 E.01453
G1 X118.194 Y65.848 E.02204
G1 X118.394 Y64.972 E.02817
G1 X118.629 Y64.325 E.02158
G1 X118.927 Y63.704 E.0216
G1 X119.299 Y63.096 E.02235
G1 X119.926 Y62.31 E.03153
G1 X120.421 Y61.825 E.02173
G1 X120.959 Y61.395 E.02159
G1 X121.537 Y61.021 E.02159
G1 X122.15 Y60.705 E.02162
G1 X122.79 Y60.453 E.02157
G1 X123.453 Y60.265 E.02161
G1 X124.131 Y60.145 E.02159
G1 X124.818 Y60.093 E.0216
G1 X125.507 Y60.109 E.02161
G1 X126.191 Y60.193 E.02161
G1 X126.862 Y60.346 E.02158
G1 X127.516 Y60.564 E.02161
G1 X128.144 Y60.847 E.0216
G1 X128.407 Y60.999 E.00952
M204 S1000
;WIPE_START
G1 F8640
G1 X128.459 Y61.029 E-.01386
G1 X128.761 Y61.203 E-.08048
G1 X129.562 Y61.81 E-.23206
G1 X130.059 Y62.293 E-.16002
G1 X130.502 Y62.82 E-.15897
G1 X130.88 Y63.373 E-.15461
;WIPE_END
G1 Z.6 F720
G1 X145.085 Y65.25 F10800
G1 Z.2 F720
G1 E.8 F2100
M204 S800
;TYPE:Perimeter
G1 F1200
G1 X145.228 Y65.413 E.0068
G1 X145.498 Y65.886 E.01708
G1 X145.669 Y66.403 E.01707
G1 X145.734 Y66.944 E.01708
G1 X145.691 Y67.487 E.01708
G1 X145.542 Y68.01 E.01705
G1 X145.291 Y68.494 E.01709
G1 X144.95 Y68.918 E.01706
G1 X144.531 Y69.266 E.01708
G1 X144.051 Y69.525 E.0171
G1 X143.531 Y69.683 E.01704
G1 X143.032 Y69.736 E.01573
G1 X142.533 Y69.697 E.01569
G1 X142.044 Y69.563 E.0159
G1 X141.564 Y69.328 E.01676
G1 X141.148 Y69.013 E.01636
G1 X140.801 Y68.629 E.01623
G1 X140.534 Y68.188 E.01616
G1 X140.355 Y67.703 E.01621
G1 X140.272 Y67.193 E.0162
G1 X140.288 Y66.648 E.0171
G1 X140.411 Y66.118 E.01706
G1 X140.637 Y65.622 E.01709
G1 X140.957 Y65.181 E.01708
G1 X141.358 Y64.813 E.01707
G1 X141.824 Y64.531 E.01708
G1 X142.337 Y64.347 E.01709
G1 X142.876 Y64.268 E.01708
G1 X143.419 Y64.297 E.01705
G1 X143.947 Y64.434 E.0171
G1 X144.436 Y64.672 E.01705
G1 X144.869 Y65.003 E.01709
G1 X145.046 Y65.205 E.00842
M204 S1000
G1 X145.046 Y65.205 F10800
G1 X144.798 Y65.491
M204 S800
;TYPE:External perimeter
G1 F1200
G1 X144.96 Y65.687 E.00797
G1 X145.181 Y66.101 E.01471
G1 X145.316 Y66.551 E.01473
G1 X145.359 Y67.019 E.01474
G1 X145.309 Y67.486 E.01473
G1 X145.167 Y67.934 E.01474
G1 X144.939 Y68.345 E.01474
G1 X144.634 Y68.702 E.01472
G1 X144.264 Y68.992 E.01474
G1 X143.844 Y69.203 E.01474
G1 X143.396 Y69.326 E.01457
G1 X143.04 Y69.359 E.01121
G1 X142.572 Y69.32 E.01472
G1 X142.121 Y69.189 E.01473
G1 X141.565 Y68.866 E.02016
G1 X141.131 Y68.439 E.01909
G1 X140.866 Y68.007 E.01589
G1 X140.709 Y67.564 E.01474
G1 X140.643 Y67.099 E.01473
G1 X140.67 Y66.63 E.01473
G1 X140.789 Y66.175 E.01475
G1 X140.977 Y65.786 E.01355
G1 X141.283 Y65.382 E.01589
G1 X141.638 Y65.073 E.01476
G1 X142.047 Y64.842 E.01473
G1 X142.493 Y64.696 E.01471
G1 X142.96 Y64.641 E.01474
G1 X143.428 Y64.68 E.01472
G1 X143.879 Y64.811 E.01473
G1 X144.296 Y65.028 E.01474
G1 X144.661 Y65.324 E.01473
G1 X144.76 Y65.445 E.0049
M204 S1000
;WIPE_START
G1 F8640
G1 X144.798 Y65.491 E-.01378
G1 X144.96 Y65.687 E-.05871
G1 X145.181 Y66.101 E-.10836
G1 X145.316 Y66.551 E-.10848
G1 X145.359 Y67.019 E-.10852
G1 X145.309 Y67.486 E-.10845
G1 X145.167 Y67.934 E-.10852
G1 X144.939 Y68.345 E-.10853
G1 X144.723 Y68.597 E-.07665
;WIPE_END
G1 Z.6 F720
G1 X161.769 Y69.418 F10800
G1 Z.2 F720
G1 E.8 F2100
M204 S800
;TYPE:Perimeter
G1 F1200
G1 X162.032 Y69.492 E.00857
G1 X162.517 Y69.741 E.01709
G1 X162.943 Y70.081 E.01709
G1 X163.294 Y70.499 E.01711
G1 X163.547 Y70.961 E.01652
G1 X163.7 Y71.443 E.01586
G1 X163.765 Y71.95 E.01603
G1 X163.737 Y72.455 E.01586
G1 X163.613 Y72.947 E.01591
G1 X163.394 Y73.418 E.01629
G1 X163.074 Y73.859 E.01708
G1 X162.673 Y74.227 E.01707
G1 X162.207 Y74.509 E.01708
G1 X161.695 Y74.693 E.01706
G1 X161.156 Y74.772 E.01708
G1 X160.612 Y74.743 E.01708
G1 X160.085 Y74.606 E.01707
G1 X159.595 Y74.368 E.01708
G1 X159.162 Y74.037 E.01709
G1 X158.804 Y73.627 E.01707
G1 X158.533 Y73.154 E.01709
G1 X158.362 Y72.637 E.01707
G1 X158.297 Y72.096 E.01708
G1 X158.362 Y71.443 E.02058
G1 X158.516 Y70.961 E.01587
G1 X158.759 Y70.514 E.01595
G1 X159.081 Y70.122 E.01591
G1 X159.498 Y69.775 E.01701
G1 X159.958 Y69.524 E.01643
G1 X160.45 Y69.366 E.0162
G1 X160.963 Y69.304 E.0162
G1 X161.507 Y69.344 E.0171
G1 X161.711 Y69.402 E.00665
M204 S1000
G1 X161.667 Y69.78 F10800
M204 S800
;TYPE:External perimeter
G1 F1200
G1 X161.911 Y69.851 E.00797
G1 X162.327 Y70.068 E.01471
G1 X162.692 Y70.364 E.01473
G1 X162.991 Y70.727 E.01475
G1 X163.212 Y71.141 E.01471
G1 X163.347 Y71.586 E.01458
G1 X163.388 Y71.944 E.0113
G1 X163.361 Y72.41 E.01464
G1 X163.242 Y72.865 E.01475
G1 X163.034 Y73.286 E.01472
G1 X162.748 Y73.658 E.01471
G1 X162.393 Y73.967 E.01476
G1 X161.984 Y74.198 E.01473
G1 X161.538 Y74.344 E.01471
G1 X161.071 Y74.399 E.01474
G1 X160.603 Y74.36 E.01472
G1 X160.139 Y74.223 E.01517
G1 X159.735 Y74.012 E.01429
G1 X159.37 Y73.716 E.01473
G1 X159.071 Y73.353 E.01475
G1 X158.85 Y72.939 E.01471
G1 X158.715 Y72.489 E.01473
G1 X158.672 Y72.021 E.01474
G1 X158.722 Y71.554 E.01473
G1 X158.864 Y71.106 E.01474
G1 X159.092 Y70.695 E.01474
G1 X159.397 Y70.338 E.01472
G1 X159.761 Y70.052 E.01451
G1 X160.078 Y69.882 E.01128
G1 X160.524 Y69.736 E.01471
G1 X160.991 Y69.681 E.01474
G1 X161.459 Y69.72 E.01472
G1 X161.609 Y69.763 E.00489
M204 S1000
;WIPE_START
G1 F8640
G1 X161.667 Y69.78 E-.01396
G1 X161.911 Y69.851 E-.05868
G1 X162.327 Y70.068 E-.10834
G1 X162.692 Y70.364 E-.10851
G1 X162.991 Y70.727 E-.10859
G1 X163.212 Y71.141 E-.10836
G1 X163.347 Y71.586 E-.10738
G1 X163.388 Y71.944 E-.0832
G1 X163.362 Y72.389 E-.10298
;WIPE_END
G1 Z.6 F720
G1 X201.116 Y70.29 F10800
G1 Z.2 F720
G1 E.8 F2100
M204 S800
;TYPE:Perimeter
G1 F1200
G1 X201.259 Y70.453 E.0068
G1 X201.529 Y70.926 E.01708
G1 X201.7 Y71.443 E.01707
G1 X201.766 Y71.984 E.01709
G1 X201.722 Y72.527 E.01708
G1 X201.573 Y73.05 E.01705
G1 X201.322 Y73.534 E.01709
G1 X200.981 Y73.958 E.01706
G1 X200.562 Y74.306 E.01708
G1 X200.083 Y74.565 E.01707
G1 X199.562 Y74.723 E.01707
G1 X199.056 Y74.776 E.01595
